X: 8567
T: Crock Of Gold, The
R: reel
M: 4/4
K: Gmajor
ea a2 bage|a2 ba gede|gedB GABd|
eaag a2 ga|baga bagf|
eaaa a2 ga|a2 ga bage|gedB G2 Bd|gedB BA A2|

